assets/features/channel/east-asia/Samsung.svg

<svg width="80" height="80" viewBox="0 0 80 80" fill="none" xmlns="http://www.w3.org/2000/svg">
<rect width="80" height="80" rx="8" fill="#1E4BC6"/>
<path d="M18.5 37.5H24.3569C25.2817 37.5 26.0523 37.655 26.8229 37.9651C27.5936 38.2751 28.2101 38.7402 28.7495 39.2828C29.289 39.8254 29.7514 40.4455 30.0596 41.2206C30.3679 41.9957 30.522 42.7708 30.522 43.6235C30.522 44.4761 30.3679 45.2512 30.0596 46.0264C29.7514 46.8015 29.289 47.4223 28.7495 47.9642C28.2101 48.506 27.5165 48.9726 26.8229 49.2811C26.1294 49.5911 25.2817 49.7477 24.3569 49.7477H21.7367V54.6302H18.5771V37.5H18.5ZM21.6596 40.4462V46.7247H24.1257C24.5881 46.7247 25.0505 46.6472 25.4358 46.4922C25.8211 46.3372 26.1294 46.1046 26.4376 45.7946C26.7459 45.4845 26.9 45.1745 27.0541 44.7869C27.2083 44.3994 27.2853 44.0118 27.2853 43.5467C27.2853 43.0817 27.2083 42.6941 27.0541 42.3065C26.9 41.919 26.6688 41.6089 26.4376 41.2989C26.1294 40.9888 25.8211 40.7563 25.4358 40.6013C25.0505 40.4462 24.5881 40.3687 24.1257 40.3687H21.6596V40.4462ZM37.8431 54.6302C36.9954 54.6302 36.2248 54.476 35.3771 54.1651C34.6064 53.8551 33.8358 53.39 33.2193 52.8482C32.6028 52.2273 32.0633 51.5297 31.678 50.6771C31.2927 49.8245 31.0615 48.8168 31.0615 47.7316C31.0615 46.6464 31.2156 45.6388 31.6009 44.7862C31.9862 43.9335 32.5257 43.2359 33.1422 42.6158C33.7587 41.9957 34.5294 41.6082 35.3 41.2981C36.1477 40.9881 36.9184 40.833 37.8431 40.833C38.7679 40.833 39.6156 40.9881 40.3092 41.2981C41.0798 41.6082 41.6963 42.0732 42.2358 42.6158V40.833H45.3954V54.6294H42.2358V52.6916C41.7734 53.3125 41.0798 53.7768 40.3092 54.1644C39.5385 54.476 38.7679 54.6302 37.8431 54.6302ZM38.3826 51.763C38.9991 51.763 39.5385 51.6855 40.0009 51.453C40.4633 51.2205 40.9257 50.9879 41.311 50.6004C41.6963 50.2128 41.9275 49.8252 42.1587 49.3602C42.3899 48.8935 42.467 48.3517 42.467 47.8099C42.467 47.2665 42.3899 46.724 42.1587 46.2597C41.9275 45.7946 41.6963 45.3295 41.311 45.0195C40.9257 44.6319 40.5404 44.3994 40.0009 44.1668C39.4615 43.8568 38.922 43.7793 38.3826 43.7793C37.8431 43.7793 37.3037 43.8568 36.7642 44.0893C36.2248 44.3219 35.8395 44.5544 35.4541 44.942C35.0688 45.3295 34.7605 45.7171 34.6064 46.1822C34.3752 46.6472 34.2982 47.1898 34.2982 47.7324C34.2982 48.275 34.3752 48.8168 34.6064 49.2819C34.8376 49.7485 35.1459 50.2128 35.4541 50.6004C35.8395 50.9879 36.3018 51.2197 36.7642 51.453C37.2266 51.6072 37.7661 51.763 38.3826 51.763ZM49.7881 40.9105L53.6413 50.2895L57.1862 40.9105H60.5L52.4083 60.9087H49.1716L52.0229 54.0109L46.4743 40.9105H49.7881Z" fill="white"/>
<path d="M60.2193 27.5063V19.1082H58.2344L58.3403 25.7652H58.3138L56.4612 19.1082H53.4972V27.5063H55.4556L55.3497 20.5968H55.4026L57.3611 27.5063H60.2193Z" fill="#6F9DE4"/>
<path d="M20.5747 19.1082L19.0926 27.5908H21.2363L22.3478 19.8666H22.3743L23.4594 27.5908H25.603L24.121 19.1082H20.5747Z" fill="#6F9DE4"/>
<path d="M36.1096 27.5908L35.9244 19.1082H32.6692L31.6635 25.5966H31.6371L30.6578 19.1082H27.3762L27.1909 27.5908H29.2023L29.2552 19.9508H29.3081L30.6314 27.5908H32.6692L33.9924 19.9508H34.0454L34.0983 27.5908H36.1096Z" fill="#6F9DE4"/>
<path d="M49.2098 25.6806C49.1834 25.9056 48.9984 26.2988 48.4423 26.2988C47.8866 26.2988 47.7278 25.9056 47.7011 25.7371C47.6746 25.6247 47.6746 25.5121 47.6746 25.3998V19.1085H45.6368V25.2034C45.6368 25.3719 45.6632 25.6806 45.6632 25.7652C45.7956 27.3659 46.96 27.8717 48.4421 27.8717C49.9244 27.8717 51.1153 27.3381 51.2476 25.7652C51.2476 25.6806 51.2741 25.3719 51.2741 25.2034V19.1085H49.2363V25.3439C49.2363 25.4562 49.2363 25.5966 49.2098 25.6806Z" fill="#6F9DE4"/>
<path d="M15.7316 25.793C15.758 25.6525 15.7845 25.3717 15.7051 25.1753C15.3081 24.0799 12.4499 23.6022 12.1323 21.8332C12.0529 21.3838 12.0529 21.0468 12.1059 20.6817C12.3176 19.3054 13.482 18.7998 14.9112 18.7998C16.0491 18.7998 17.6106 19.0807 17.6106 20.9344V21.5243H15.6257V20.9906C15.6257 20.5412 15.3611 20.2323 14.8847 20.2323C14.3819 20.2323 14.1966 20.5131 14.1437 20.794C14.1172 20.9064 14.1172 21.0749 14.1437 21.2434C14.3554 22.2543 17.3989 22.7882 17.7429 24.5574C17.7694 24.7543 17.8488 25.2315 17.7429 25.9618C17.5577 27.3661 16.3667 27.8998 14.9112 27.8998C13.4026 27.8998 12 27.3381 12 25.4278V24.7821H14.1437V25.5966C14.1437 26.0458 14.4348 26.3547 14.9376 26.3547C15.4934 26.3547 15.6522 26.0739 15.7316 25.793Z" fill="#6F9DE4"/>
<path d="M41.7467 25.793C41.7732 25.6247 41.7996 25.3717 41.7202 25.1753C41.3233 24.0799 38.518 23.6022 38.2271 21.8891C38.1212 21.4678 38.1477 21.1308 38.2006 20.7656C38.4124 19.3894 39.5768 18.9119 40.9795 18.9119C42.091 18.9119 43.6524 19.1927 43.6524 21.0184V21.6083H41.6676V21.0746C41.6676 20.6252 41.4029 20.3162 40.9265 20.3162C40.4502 20.3162 40.2649 20.5971 40.212 20.878C40.1855 20.9903 40.1591 21.1589 40.212 21.3274C40.4234 22.3104 43.414 22.816 43.758 24.5852L43.7593 24.5931C43.7871 24.7686 43.8623 25.2423 43.758 25.9615C43.5728 27.3659 42.3819 27.8717 40.9527 27.8717C39.4707 27.8717 38.0681 27.31 38.0681 25.4278V24.7821H40.1853V25.5966C40.1853 26.0458 40.4764 26.3547 40.9792 26.3547C41.5085 26.3547 41.6938 26.0739 41.7467 25.793Z" fill="#6F9DE4"/>
<path d="M65.9622 25.5966C65.909 25.8211 65.7237 26.2143 65.1418 26.2143C64.5595 26.2143 64.3478 25.8492 64.3478 25.568C64.3211 25.484 64.3211 25.3714 64.3211 25.259V21.3833C64.3211 21.2428 64.3211 21.1024 64.3478 20.9901C64.4005 20.7934 64.5595 20.3721 65.1418 20.3721C65.7505 20.3721 65.909 20.7934 65.9357 20.9901C65.9622 21.1305 65.9622 21.3271 65.9622 21.3271V21.8046H67.9735V21.5237C67.9735 21.5237 67.9735 21.2147 67.9471 20.962C67.8148 19.361 66.5706 18.8554 65.1418 18.8554C63.7124 18.8554 62.5215 19.361 62.3362 20.962C62.3362 21.1024 62.3098 21.3833 62.3098 21.5237V25.0908C62.3098 25.2593 62.3098 25.3717 62.3362 25.6525C62.4685 27.1973 63.7389 27.7591 65.1418 27.7591C66.5706 27.7591 67.8409 27.1973 67.9733 25.6525C68 25.3717 68 25.2594 68 25.0909V25.0908V22.8157H65.1682V24.0518H65.9887V25.2871V25.2872C65.9887 25.3717 65.9887 25.5121 65.9622 25.5966Z" fill="#6F9DE4"/>
</svg>

<svg xmlns="http://www.w3.org/2000/svg" width="80" height="80" fill="none" viewBox="0 0 80 80"><rect width="80" height="80" fill="#1e4bc6" rx="8"/><path fill="#fff" d="M18.5 37.5h5.857c.925 0 1.695.155 2.466.465.77.31 1.387.775 1.927 1.318.539.542 1.001 1.163 1.31 1.938.308.775.462 1.55.462 2.403 0 .852-.154 1.627-.462 2.402s-.771 1.396-1.31 1.938a6.6 6.6 0 0 1-1.927 1.317c-.694.31-1.541.467-2.466.467h-2.62v4.882h-3.16V37.5zm3.16 2.946v6.279h2.466c.462 0 .924-.078 1.31-.233.385-.155.693-.387 1.002-.697.308-.31.462-.62.616-1.008s.231-.775.231-1.24-.077-.853-.23-1.24c-.155-.388-.386-.698-.617-1.008-.309-.31-.617-.543-1.002-.698a3.6 3.6 0 0 0-1.31-.232H21.66zM37.843 54.63c-.848 0-1.618-.154-2.466-.465a7.7 7.7 0 0 1-2.158-1.317c-.616-.62-1.156-1.318-1.541-2.17a7.2 7.2 0 0 1-.617-2.946c0-1.086.155-2.093.54-2.946.385-.852.925-1.55 1.541-2.17.617-.62 1.387-1.008 2.158-1.318.848-.31 1.618-.465 2.543-.465s1.773.155 2.466.465c.77.31 1.387.775 1.927 1.318v-1.783h3.16v13.796h-3.16v-1.937c-.463.62-1.156 1.085-1.927 1.472a6.3 6.3 0 0 1-2.466.466m.54-2.867c.616 0 1.155-.078 1.618-.31.462-.233.925-.465 1.31-.853s.617-.775.848-1.24c.23-.466.308-1.008.308-1.55 0-.544-.077-1.086-.308-1.55-.231-.465-.463-.93-.848-1.24-.385-.388-.77-.62-1.31-.853-.54-.31-1.079-.388-1.618-.388s-1.08.078-1.619.31c-.54.233-.925.465-1.31.853s-.694.775-.848 1.24c-.23.465-.308 1.008-.308 1.55 0 .543.077 1.085.308 1.55.232.467.54.93.848 1.318.386.388.848.62 1.31.853.463.154 1.002.31 1.619.31m11.405-10.852 3.853 9.378 3.545-9.379H60.5l-8.092 20h-3.236l2.85-6.898-5.548-13.1z"/><path fill="#6f9de4" d="M60.22 27.506v-8.398h-1.986l.106 6.657h-.026l-1.853-6.657h-2.964v8.398h1.959l-.106-6.91h.053l1.958 6.91zm-39.645-8.398-1.482 8.483h2.143l1.112-7.724h.026l1.085 7.724h2.144l-1.482-8.483zM36.11 27.59l-.186-8.482H32.67l-1.005 6.489h-.027l-.98-6.489h-3.28l-.186 8.483h2.011l.053-7.64h.053l1.323 7.64h2.038l1.323-7.64h.053l.053 7.64zm13.1-1.91c-.027.226-.212.619-.768.619-.555 0-.714-.393-.74-.562-.027-.112-.027-.225-.027-.337v-6.291h-2.038v6.094c0 .169.026.478.026.562.133 1.6 1.297 2.107 2.78 2.107 1.481 0 2.672-.534 2.805-2.107 0-.084.026-.393.026-.562V19.11h-2.038v6.235c0 .112 0 .253-.026.337m-33.478.111c.026-.14.053-.421-.027-.618-.397-1.095-3.255-1.573-3.573-3.342a3.4 3.4 0 0 1-.026-1.151c.212-1.377 1.376-1.882 2.805-1.882 1.138 0 2.7.28 2.7 2.134v.59h-1.985v-.533c0-.45-.265-.759-.741-.759-.503 0-.688.281-.741.562a1.3 1.3 0 0 0 0 .45c.211 1.01 3.255 1.544 3.599 3.313.026.197.106.675 0 1.405-.185 1.404-1.376 1.938-2.832 1.938-1.508 0-2.911-.562-2.911-2.472v-.646h2.144v.815c0 .449.29.758.794.758.555 0 .714-.281.794-.562m26.015 0c.026-.168.053-.421-.027-.618-.397-1.095-3.202-1.573-3.493-3.286-.106-.421-.08-.758-.026-1.123.211-1.377 1.376-1.854 2.779-1.854 1.111 0 2.672.28 2.672 2.106v.59h-1.984v-.533c0-.45-.265-.759-.742-.759-.476 0-.661.281-.714.562a.86.86 0 0 0 0 .45c.211.982 3.202 1.488 3.546 3.257l.001.008c.028.176.103.65-.001 1.369-.185 1.404-1.376 1.91-2.805 1.91-1.482 0-2.885-.562-2.885-2.444v-.646h2.117v.815c0 .449.291.758.794.758.53 0 .715-.281.768-.562m24.215-.196c-.053.224-.238.617-.82.617s-.794-.365-.794-.646c-.027-.084-.027-.197-.027-.309v-3.876c0-.14 0-.28.027-.393.052-.197.212-.618.794-.618.609 0 .767.421.794.618.026.14.026.337.026.337v.478h2.011v-.281s0-.31-.026-.562c-.132-1.601-1.376-2.107-2.805-2.107s-2.62.506-2.806 2.107c0 .14-.026.421-.026.562v3.567c0 .168 0 .28.026.561.133 1.545 1.403 2.107 2.806 2.107 1.429 0 2.699-.562 2.831-2.107.027-.28.027-.393.027-.561v-2.275h-2.832v1.236h.82v1.235c0 .085 0 .225-.026.31"/></svg>
